assets/Woman feeding baby/Medium/Flat/woman_feeding_baby_flat_medium.svg

<svg width="32" height="32" viewBox="0 0 32 32" fill="none" xmlns="http://www.w3.org/2000/svg">
<path d="M22.44 11.3203C22.58 10.8203 22.61 10.2803 22.52 9.73034C22.39 9.01034 22.06 8.38034 21.59 7.89034C21.12 7.39034 20.81 6.76034 20.69 6.09034C20.35 4.15034 18.49 2.85034 16.55 3.19034C16.36 3.22034 16.16 3.17034 16.02 3.03034C15.22 2.25034 14.08 1.85034 12.9 2.06034C11.72 2.27034 10.78 3.03034 10.3 4.04034C10.22 4.22034 10.05 4.34034 9.86 4.37034C7.9 4.71034 6.6 6.56034 6.94 8.51034C7.06 9.18034 6.98 9.89034 6.71 10.5103C6.44 11.1303 6.34 11.8403 6.47 12.5603C6.57 13.1103 6.78 13.6003 7.09 14.0303C7.19 14.1703 7.22 14.3503 7.17 14.5203C7.03 15.0103 7 15.5403 7.09 16.0803C7.42 17.9803 9.24 19.2503 11.14 18.9103L20.31 17.2903C22.21 16.9603 23.48 15.1403 23.14 13.2403C23.04 12.7003 22.83 12.2103 22.53 11.8003C22.43 11.6703 22.4 11.4903 22.44 11.3203Z" fill="#593B39"/>
<path d="M4.99997 28.0998C4.98997 29.1498 5.83997 29.9998 6.88997 29.9998H12.5L15 28.9998L17 29.9998H26.56L26.396 26.1128L28.88 25.34L23.94 19.29L23.9369 19.2985C21.9771 16.9835 19.0165 15.5098 15.7 15.5098C9.79997 15.5098 5.00997 20.1998 5.00997 25.9698L4.99997 28.0998Z" fill="#8B62BF"/>
<path d="M15.41 18.4198C16.47 18.4198 17.32 17.5598 17.32 16.5098V14.2498C17.32 13.1898 16.46 12.3398 15.41 12.3398C14.35 12.3398 13.5 13.1998 13.5 14.2498V16.5098C13.5 17.5698 14.35 18.4198 15.41 18.4198Z" fill="#B87A66"/>
<path d="M20.93 10.2293C20.93 11.1461 20.1868 11.8893 19.27 11.8893C18.3532 11.8893 17.61 11.1461 17.61 10.2293C17.61 9.31254 18.3532 8.56934 19.27 8.56934C20.1868 8.56934 20.93 9.31254 20.93 10.2293Z" fill="#BB806E"/>
<path d="M11.32 11.9295C11.32 12.8463 10.5768 13.5895 9.66 13.5895C8.74321 13.5895 8 12.8463 8 11.9295C8 11.0127 8.74321 10.2695 9.66 10.2695C10.5768 10.2695 11.32 11.0127 11.32 11.9295Z" fill="#BB806E"/>
<path d="M18.08 7.0499L14.68 7.6499C13.33 7.8899 11.96 7.4499 11 6.4699C10.85 6.3099 10.57 6.3899 10.53 6.6099L10.48 6.8299C10.34 7.4599 9.97004 7.9999 9.45004 8.3499C9.42004 8.3799 9.38004 8.3999 9.35004 8.4199C9.12004 8.5899 8.60004 9.0799 8.76004 10.0899L9.50004 13.4499C10.15 16.4199 12.82 18.0299 15.62 17.5299C18.43 17.0399 20.38 14.6199 19.98 11.5999L19.55 8.3599C19.28 6.9399 18.28 7.0199 18.08 7.0499Z" fill="#C68D7B"/>
<path d="M17.78 8.53976C17.83 8.55976 17.88 8.55976 17.93 8.54976C18.03 8.52976 18.12 8.45976 18.15 8.36976C18.21 8.21976 18.13 8.04976 17.98 7.99976C17.9777 7.9992 17.9724 7.99754 17.9642 7.99496C17.8254 7.95167 16.8622 7.6511 15.89 8.00976C15.74 8.05976 15.66 8.22976 15.72 8.37976C15.77 8.52976 15.94 8.60976 16.09 8.54976C16.8631 8.261 17.6536 8.50152 17.7664 8.53583C17.7747 8.53835 17.78 8.53976 17.78 8.53976Z" fill="#593B39"/>
<path d="M10.1 9.77929C10.17 9.85929 10.28 9.89929 10.38 9.87929C10.43 9.86929 10.47 9.84929 10.52 9.80929C10.52 9.80929 10.5282 9.80405 10.5412 9.79458C10.6641 9.70526 11.3053 9.23929 12.11 9.23929C12.27 9.23929 12.4 9.10929 12.4 8.94929C12.4 8.78929 12.27 8.65929 12.11 8.65929C11.0538 8.64969 10.2465 9.28551 10.1485 9.36266C10.1445 9.36586 10.14 9.36929 10.14 9.36929C10.02 9.46929 10 9.65929 10.1 9.77929Z" fill="#593B39"/>
<path d="M14.2252 10.5194L14.0052 12.2894C13.9552 12.6494 14.2752 12.9594 14.6352 12.8894L15.4052 12.7494C15.7652 12.6894 15.9652 12.2894 15.7952 11.9694L14.9852 10.3794C14.7952 10.0394 14.2752 10.1294 14.2252 10.5194Z" fill="#AB6A55"/>
<path d="M15.159 13.8937C14.6486 13.9837 14.1477 13.9437 13.7047 13.8037C13.5506 13.7537 13.435 13.9437 13.541 14.0637C13.9744 14.5437 14.6197 14.7937 15.2939 14.6737C15.968 14.5537 16.4881 14.0837 16.7385 13.4737C16.7963 13.3237 16.623 13.1837 16.4978 13.2837C16.1221 13.5837 15.6695 13.7937 15.159 13.8937Z" fill="#990838"/>
<path d="M16.1868 10.1695C16.1268 10.1195 16.0468 10.0995 15.9668 10.1095C15.7468 10.1495 15.6668 10.4295 15.8568 10.5795C16.2068 10.8695 16.6768 10.9995 17.1568 10.9195C17.6268 10.8295 18.0268 10.5395 18.2568 10.1495C18.3668 9.94953 18.1968 9.70953 17.9768 9.74953C17.8968 9.75953 17.8268 9.80953 17.7868 9.87953C17.6368 10.1395 17.3768 10.3295 17.0568 10.3895C16.7368 10.4495 16.4268 10.3595 16.1868 10.1695Z" fill="#593B39"/>
<path d="M11.6868 10.9791C11.6268 10.9291 11.5468 10.9091 11.4668 10.9191C11.2468 10.9591 11.1668 11.2491 11.3568 11.3891C11.7068 11.6791 12.1768 11.8091 12.6568 11.7291C13.1268 11.6391 13.5268 11.3491 13.7568 10.9591C13.8668 10.7591 13.6968 10.5191 13.4768 10.5591C13.3968 10.5691 13.3268 10.6191 13.2868 10.6891C13.1368 10.9491 12.8768 11.1391 12.5568 11.1991C12.2368 11.2591 11.9268 11.1691 11.6868 10.9791Z" fill="#593B39"/>
<path d="M16.9499 19.34L17.1599 19.4C17.4199 19.47 17.5699 19.73 17.4999 19.99C17.4299 20.25 17.1699 20.4 16.9099 20.33L16.6999 20.27C16.6199 20.25 16.5299 20.27 16.4699 20.34L16.2099 20.63C16.0999 20.76 15.9199 20.81 15.7599 20.77L15.4258 20.683L16.0458 18.373L16.3799 18.46C16.5399 18.5 16.6699 18.64 16.6999 18.8L16.7799 19.18C16.7999 19.25 16.8599 19.32 16.9499 19.34Z" fill="#F9C23C"/>
<path d="M15.08 16.9802C15.09 16.9902 15.08 16.9902 15.08 16.9802H15.1C15.5676 17.1111 15.8602 17.5743 15.7818 18.0509L16.0078 18.332L15.3711 20.668L15.0435 20.7986C14.8655 21.2418 14.3928 21.4907 13.92 21.3702H13.9L11.02 20.6002C10.45 20.4502 10.11 19.8602 10.26 19.2802L10.88 16.9702C11.03 16.4002 11.62 16.0602 12.2 16.2102H12.21L15.08 16.9802Z" fill="#26EAFC"/>
<path d="M11.11 20.27C10.72 20.16 10.49 19.76 10.59 19.37L11.21 17.06C11.32 16.67 11.72 16.44 12.11 16.54C12.12 16.54 12.1325 16.5425 12.145 16.545C12.1575 16.5475 12.17 16.55 12.18 16.55L14.95 17.29C14.96 17.295 14.97 17.2975 14.98 17.3C14.99 17.3025 15 17.305 15.01 17.31C15.33 17.4 15.52 17.74 15.43 18.06L14.75 20.6C14.67 20.92 14.33 21.12 14.01 21.04H14L11.11 20.27Z" fill="#00D1ED"/>
<path d="M15.29 20.8801L15.0391 20.8098C15.055 20.7715 15.0687 20.7317 15.08 20.6906L15.76 18.1506C15.77 18.1141 15.7778 18.0775 15.7834 18.041L16.03 18.1101C16.15 18.1401 16.22 18.2601 16.19 18.3801L15.56 20.7201C15.53 20.8401 15.41 20.9101 15.29 20.8801Z" fill="#00D1ED"/>
<path d="M13.05 20.79L11.11 20.27C10.72 20.16 10.49 19.76 10.59 19.37L11.21 17.06C11.31 16.67 11.72 16.44 12.11 16.54C12.13 16.55 12.16 16.55 12.18 16.55L13.36 16.87C13.42 16.89 13.47 16.94 13.47 17.01L13.42 20.52C13.4 20.71 13.23 20.84 13.05 20.79Z" fill="white"/>
<path d="M23.18 27.1596C25.5548 27.1596 27.48 25.2344 27.48 22.8596C27.48 20.4847 25.5548 18.5596 23.18 18.5596C20.8052 18.5596 18.88 20.4847 18.88 22.8596C18.88 25.2344 20.8052 27.1596 23.18 27.1596Z" fill="#00F397"/>
<path d="M22.02 18.7197C20.65 20.0597 20.31 22.1997 21.31 23.9397C22.32 25.6797 24.35 26.4497 26.19 25.9397C25.94 26.1797 25.65 26.4097 25.33 26.5897C24.1138 27.2914 22.6926 27.3298 21.4899 26.8169C21.5692 28.0335 21.164 29.1537 20.01 29.8098L14 29V30H11.98L11.77 29.6598C10.6 27.6298 11.29 25.0198 13.33 23.8498L15.76 22.4498C16.7689 21.8684 17.921 21.7463 18.9684 22.021C19.2007 20.8677 19.8999 19.8134 20.98 19.1697C21.31 18.9697 21.66 18.8197 22.02 18.7197Z" fill="#00D26A"/>
<path d="M4.83 21.2003L2 30.0003H8.37L10.55 22.9803C11.04 21.4003 10.16 19.7203 8.58 19.2303C7 18.7403 5.32 19.6203 4.83 21.2003Z" fill="#A17FD5"/>
<path d="M27.06 24.6504L20.6461 25.7804C19.6926 25.9504 19.5 26.7704 19.5 27.7404V30H27.06C28.5455 30 29.75 28.8104 29.75 27.3304C29.75 25.8504 28.676 24.3904 27.06 24.6504Z" fill="#A17FD5"/>
<path d="M7.90997 17.6698L6.92997 19.5698C6.65997 20.0898 6.53407 20.8579 6.84407 21.3579C7.14407 21.8579 7.70467 22.263 8.28467 22.343C8.66467 22.403 9.41697 22.3659 10.067 21.3959L10.45 21.6498C10.6 21.8198 10.81 21.8998 11.02 21.8998C11.2 21.8998 11.39 21.8298 11.55 21.6898C11.75 21.5098 11.83 21.2498 11.79 20.9998C12.08 21.1098 12.43 21.0198 12.64 20.7598C12.9 20.4198 12.85 19.9398 12.52 19.6698L11.53 18.8698C11.52 18.8698 11.52 18.8698 11.51 18.8598L13.08 19.0798C13.5 19.1398 13.89 18.8398 13.95 18.4198C14 18.1198 13.85 17.8298 13.61 17.6698C14.03 17.7298 14.42 17.4298 14.48 17.0098C14.54 16.5898 14.24 16.1998 13.82 16.1398L12.16 15.9098C12.1 15.8998 11.49 15.8198 11.49 15.8198C9.76997 15.5798 8.63997 16.2598 7.90997 17.6698Z" fill="#B87A66"/>
<path d="M16.1135 27.8569H13.5622C12.9765 27.8569 12.5 28.336 12.5 28.925C12.5 29.514 12.9765 30 13.5622 30H18.8732C19.0119 30.0096 19.1529 29.9847 19.2872 29.9376C19.4319 29.8869 19.4653 29.4029 19.4653 29.4029V28.4213L19.3696 27.8569L17.4338 25.9102C17.0268 25.4909 16.3517 25.4909 15.9348 25.9102C15.5178 26.3195 15.5178 26.9983 15.9348 27.4176L16.1929 27.6772C16.2525 27.7371 16.2128 27.8569 16.1135 27.8569Z" fill="#B87A66"/>
<path d="M10.01 21.1796L10.45 21.6496C9.49993 23 7.99999 23 6.99993 22.25C5.99986 21.5 5.99999 20 6.49995 19.5C6.49995 19.5 6.74998 19.1667 7.24998 19L6.91048 19.6082C6.77447 19.8871 6.72053 20.1901 6.74865 20.487C6.77208 20.7346 6.85251 20.9779 6.98996 21.1996C7.28996 21.6996 7.81996 22.0296 8.39996 22.1096C8.77996 22.1696 9.35997 22.1496 10.01 21.1796Z" fill="#633589"/>
<path d="M19.25 26.5C19.1119 26.5 19 26.6119 19 26.75V30H19.75V26.625C19.75 26.556 19.694 26.5 19.625 26.5H19.25Z" fill="#633589"/>
</svg>

<svg xmlns="http://www.w3.org/2000/svg" width="32" height="32" fill="none"><path fill="#593B39" d="M22.44 11.32c.14-.5.17-1.04.08-1.59-.13-.72-.46-1.35-.93-1.84-.47-.5-.78-1.13-.9-1.8a3.58 3.58 0 0 0-4.14-2.9.61.61 0 0 1-.53-.16 3.56 3.56 0 0 0-3.12-.97c-1.18.21-2.12.97-2.6 1.98-.08.18-.25.3-.44.33a3.574 3.574 0 0 0-2.92 4.14c.12.67.04 1.38-.23 2-.27.62-.37 1.33-.24 2.05.1.55.31 1.04.62 1.47.1.14.13.32.08.49a3.488 3.488 0 0 0 3.97 4.39l9.17-1.62c1.9-.33 3.17-2.15 2.83-4.05-.1-.54-.31-1.03-.61-1.44a.575.575 0 0 1-.09-.48Z"/><path fill="#8B62BF" d="M5 28.1c-.01 1.05.84 1.9 1.89 1.9h5.61l2.5-1 2 1h9.56l-.164-3.887 2.484-.773-4.94-6.05-.003.009a10.758 10.758 0 0 0-8.237-3.79c-5.9 0-10.69 4.69-10.69 10.46L5 28.1Z"/><path fill="#B87A66" d="M15.41 18.42c1.06 0 1.91-.86 1.91-1.91v-2.26a1.91 1.91 0 1 0-3.82 0v2.26c0 1.06.85 1.91 1.91 1.91Z"/><path fill="#BB806E" d="M20.93 10.23a1.66 1.66 0 1 1-3.32 0 1.66 1.66 0 0 1 3.32 0ZM11.32 11.93a1.66 1.66 0 1 1-3.32 0 1.66 1.66 0 0 1 3.32 0Z"/><path fill="#C68D7B" d="m18.08 7.05-3.4.6c-1.35.24-2.72-.2-3.68-1.18a.277.277 0 0 0-.47.14l-.05.22a2.47 2.47 0 0 1-1.03 1.52c-.03.03-.07.05-.1.07-.23.17-.75.66-.59 1.67l.74 3.36c.65 2.97 3.32 4.58 6.12 4.08 2.81-.49 4.76-2.91 4.36-5.93l-.43-3.24c-.27-1.42-1.27-1.34-1.47-1.31Z"/><path fill="#593B39" d="M17.78 8.54c.05.02.1.02.15.01.1-.02.19-.09.22-.18a.281.281 0 0 0-.186-.375c-.139-.043-1.102-.344-2.074.015-.15.05-.23.22-.17.37.05.15.22.23.37.17.773-.289 1.564-.048 1.676-.014l.014.004ZM10.1 9.78c.07.08.18.12.28.1.05-.01.09-.03.14-.07l.021-.015c.123-.09.764-.556 1.569-.556a.29.29 0 0 0 0-.58c-1.056-.01-1.864.627-1.961.704l-.009.006c-.12.1-.14.29-.04.41Z"/><path fill="#AB6A55" d="m14.225 10.52-.22 1.77c-.05.36.27.67.63.6l.77-.14a.54.54 0 0 0 .39-.78l-.81-1.59c-.19-.34-.71-.25-.76.14Z"/><path fill="#990838" d="M15.159 13.894a3.07 3.07 0 0 1-1.454-.09c-.154-.05-.27.14-.164.26.433.48 1.079.73 1.753.61.674-.12 1.194-.59 1.444-1.2.058-.15-.115-.29-.24-.19-.376.3-.829.51-1.339.61Z"/><path fill="#593B39" d="M16.187 10.17a.286.286 0 0 0-.22-.06c-.22.04-.3.32-.11.47.35.29.82.42 1.3.34.47-.09.87-.38 1.1-.77.11-.2-.06-.44-.28-.4-.08.01-.15.06-.19.13a1.074 1.074 0 0 1-1.6.29ZM11.687 10.98a.286.286 0 0 0-.22-.06c-.22.04-.3.33-.11.47.35.29.82.42 1.3.34.47-.09.87-.38 1.1-.77.11-.2-.06-.44-.28-.4-.08.01-.15.06-.19.13a1.074 1.074 0 0 1-1.6.29Z"/><path fill="#F9C23C" d="m16.95 19.34.21.06c.26.07.41.33.34.59-.07.26-.33.41-.59.34l-.21-.06c-.08-.02-.17 0-.23.07l-.26.29c-.11.13-.29.18-.45.14l-.334-.087.62-2.31.334.087c.16.04.29.18.32.34l.08.38c.02.07.08.14.17.16Z"/><path fill="#26EAFC" d="M15.08 16.98c.01.01 0 .01 0 0h.02c.468.131.76.594.682 1.07l.226.282-.637 2.336-.328.13a.952.952 0 0 1-1.123.572h-.02l-2.88-.77a1.08 1.08 0 0 1-.76-1.32l.62-2.31c.15-.57.74-.91 1.32-.76h.01l2.87.77Z"/><path fill="#00D1ED" d="M11.11 20.27a.744.744 0 0 1-.52-.9l.62-2.31c.11-.39.51-.62.9-.52.01 0 .023.003.035.005.013.002.025.005.035.005l2.77.74c.01.005.02.008.03.01a.612.612 0 0 1 .45.76l-.68 2.54c-.08.32-.42.52-.74.44H14l-2.89-.77ZM15.29 20.88l-.25-.07c.015-.038.029-.078.04-.12l.68-2.54a.974.974 0 0 0 .023-.109l.247.07c.12.03.19.15.16.27l-.63 2.34a.22.22 0 0 1-.27.16Z"/><path fill="#fff" d="m13.05 20.79-1.94-.52a.744.744 0 0 1-.52-.9l.62-2.31c.1-.39.51-.62.9-.52.02.01.05.01.07.01l1.18.32c.06.02.11.07.11.14l-.05 3.51c-.02.19-.19.32-.37.27Z"/><path fill="#00F397" d="M23.18 27.16a4.3 4.3 0 1 0 0-8.6 4.3 4.3 0 0 0 0 8.6Z"/><path fill="#00D26A" d="M22.02 18.72a4.3 4.3 0 0 0-.71 5.22 4.317 4.317 0 0 0 4.88 2 4.297 4.297 0 0 1-4.7.877c.08 1.216-.326 2.337-1.48 2.993L14 29v1h-2.02l-.21-.34c-1.17-2.03-.48-4.64 1.56-5.81l2.43-1.4a4.25 4.25 0 0 1 3.208-.429 4.298 4.298 0 0 1 2.012-2.851c.33-.2.68-.35 1.04-.45Z"/><path fill="#A17FD5" d="M4.83 21.2 2 30h6.37l2.18-7.02a2.995 2.995 0 0 0-5.72-1.78ZM27.06 24.65l-6.414 1.13c-.953.17-1.146.99-1.146 1.96V30h7.56c1.486 0 2.69-1.19 2.69-2.67s-1.074-2.94-2.69-2.68Z"/><path fill="#B87A66" d="m7.91 17.67-.98 1.9c-.27.52-.396 1.288-.086 1.788.3.5.86.905 1.44.985.38.06 1.133.023 1.783-.947l.383.254c.15.17.36.25.57.25.18 0 .37-.07.53-.21.2-.18.28-.44.24-.69.29.11.64.02.85-.24.26-.34.21-.82-.12-1.09l-.99-.8c-.01 0-.01 0-.02-.01l1.57.22c.42.06.81-.24.87-.66.05-.3-.1-.59-.34-.75.42.06.81-.24.87-.66a.775.775 0 0 0-.66-.87l-1.66-.23c-.06-.01-.67-.09-.67-.09-1.72-.24-2.85.44-3.58 1.85ZM16.113 27.857h-2.55a1.072 1.072 0 0 0 0 2.143h5.31c.139.01.28-.015.414-.062.145-.051.178-.535.178-.535v-.982l-.095-.564-1.936-1.947a1.05 1.05 0 0 0-1.5 0 1.065 1.065 0 0 0 0 1.508l.259.26c.06.06.02.179-.08.179Z"/><path fill="#633589" d="m10.01 21.18.44.47C9.5 23 8 23 7 22.25 6 21.5 6 20 6.5 19.5c0 0 .25-.333.75-.5l-.34.608a1.644 1.644 0 0 0 .08 1.591c.3.5.83.83 1.41.91.38.06.96.04 1.61-.93ZM19.25 26.5a.25.25 0 0 0-.25.25V30h.75v-3.375a.125.125 0 0 0-.125-.125h-.375Z"/></svg>
